X:1
T:Title
%%score 1 2
L:1/8
Q:1/4=60
M:6/8
K:Ab
V:1 treble nm="Strings 1, Soprano"
V:2 bass nm="Strings 1, Bass"
V:1
 z3 z z/ C/[CE] | [CF][CE]>C [CF][CE]>C | B,3- B,>C[CE] | [DG][DF]>[DG] [DF][DE]>D | C3- C>C[CE] | %5
w: 1.~With~ a~|heart~ full~ of~ an xious~ re|quest,~ * Which~ my~|Fa ther~ in~ heav en~ be|stowed,~ * I~ *|
 [DF][D=E]>[DF] [=DA][DG]>[DF] | [=EG]3- [EG]3/2[CE]3/2 | [CF][CF]>[CF] [=DF][DG]>[FA] | %8
w: wan dered,~ a lone~ and~ dis|tressed,~ * In~|search~ of~ a~ qui et~ a|
 [GB]3- [GB]>CE | [CF][CE]>C [CF][CE]>C | B,3- B,>CE | [DF][D=E]>[DF] [=DF][DG]>[DA] | %12
w: bode;~ * A *|stray~ and~ dis tract ed~ I~|cried,~ * "Lord,~ *|where~ would~ Thou~ have~ me~ to~|
 [EG]3- [EG]3/2[DE]3/2 | [EA][EA]>[=EA] [FA][FA]>[EG] | [DF]3- [DF]3/2[=DA]3/2 | %15
w: be?"~ * And~|voice~ of~ the~ Lamb~ that~ had~|died~ * Said,~|
 [EG][EG]>[EG] [EG][EA]>[DB] | [CA]6 |] %17
w: "Come,~ My~ be lov ed,~ to~|Me."~|
V:2
 z3 z z/ [A,,A,]3/2 | [A,,A,][C,A,]>[E,A,] [F,A,][E,A,]>[C,A,] | [B,,G,]3- [B,,G,]3/2[A,,A,]3/2 | %3
 [B,,B,][D,B,]>[E,B,] [D,A,][D,A,]>[D,A,] | [A,,E,]3- [A,,E,]3/2[A,,A,]3/2 | %5
 [D,A,][D,G,]>[D,A,] [F,_C][F,B,]>[F,A,] | [C,C]3- [C,C]3/2[C,B,]3/2 | %7
 [F,A,][F,G,]>F, [F,_C][F,=C]>[F,=D] | [E,E]3- [E,E]3/2[A,,A,]3/2 | %9
 [A,,A,][C,A,]>[E,A,] [F,A,][E,A,]>[C,A,] | [B,,G,]3- [B,,G,]3/2[A,,A,]3/2 | %11
 [D,A,][D,G,]>[D,A,] [B,,B,][B,,B,]>[B,,B,] | [E,B,]3- [E,B,]3/2[E,B,]3/2 | %13
 [A,C][A,C]>[G,C] [F,C][F,C]>[=E,B,] | [D,A,]3- [D,A,]3/2[B,,A,]3/2 | %15
 [B,,G,][B,,G,]>[B,,G,] [E,G,][E,F,]>E, | [A,,A,]6 |] %17

